!!!OTL: WIE RUHEST DU SO STILLE
!!!ARE: Europa, Mitteleuropa, Deutschland
!!!SCT: F0285
!!!YEM: Copyright 1995, estate of Helmut Schaffrath.
**kern
*ICvox
*Ivox
*M2/4
*k[f#]
*G:
{8a
=1
8.b
16b
8cc
8f#
=2
8a
8g
8r}
{8b
=3
8.cc
16cc
8cc
8b
=4
8b
8a
8r}
{8a
=5
8.b
16ee
8dd
8cc#
=6
4dd
8r}
{8dd
=7
8.a
16a
8b
8b
=8
8b
8cc
8r}
{8a
=9
8.g
16g
8g
8a
=10
8cc
8b
8r}
{8b
=11
8cc
8b
[4ee
=12
8ee]
16dd
16cc
8b
8a
=13
4g
8r}
==
!!!AGN: Jugend - Lied, Jahreszeiten, Winter
!!!ONB: ESAC (Essen Associative Code) Database: FINK
!!!AMT: simple duple
!!!AIN: vox
!!!EED: Helmut Schaffrath
!!!EEV: 1.0
*-
